alura/assets/api/cursos/data-analysis-introducao-google-sheets.svg

<svg xmlns="http://www.w3.org/2000/svg" id="Camada_1" x="0" y="0" version="1.1" viewBox="0 0 42 48" xml:space="preserve"><style>.st2{fill:#444}</style><path fill="#afe55d" d="M38.5 28.9v4.7l-35 12.7-.3-11.1v-3l35.3-12.8z"/><path fill="#c3ff68" d="M38.5 17.3l-.5 2.4L3.2 32.4v-7.1l35.7-13z"/><path d="M39.4 11.9c0-.2-.1-.3-.2-.5l-.1-.1-.1-.1L25.7 0h-.1l-.1-.1c-.1-.1-.3-.1-.4-.2H2.8C2.1-.3 1.6.3 1.6.9V46c0 .7.6 1.2 1.2 1.2h23.6c.7 0 1.2-.6 1.2-1.2s-.6-1.2-1.2-1.2H4.1V2.2h19.6v10c0 .7.6 1.2 1.2 1.2h12v21c0 .7.6 1.2 1.2 1.2.7 0 1.2-.6 1.2-1.2V12.2c.1-.1.1-.2.1-.3zm-13.2-1V3.6l8.6 7.3h-8.6z" class="st2" transform="translate(.5 .5)"/><path d="M31.6 19.9H10.4c-.4 0-.8.3-.8.8v18.9c0 .4.3.8.8.8h21.2c.4 0 .8-.3.8-.8V20.7c0-.5-.4-.8-.8-.8zm-20.5 1.5h9.1v4.8h-9.1v-4.8zm0 6.3s.1 0 0 0h9.1v4.8h-9.1v-4.8zm0 11.1V34h9.1v4.8h-9.1zm19.8 0h-9.1V34h9.1v4.8zm0-6.3h-9.1v-4.8h9.1v4.8zm0-6.3h-9.1v-4.8h9.1v4.8z" class="st2"/></svg>

<?xml version="1.0" encoding="utf-8"?>
<!-- Generator: Adobe Illustrator 24.0.0, SVG Export Plug-In . SVG Version: 6.00 Build 0)  -->
<svg version="1.1" id="Camada_1" xmlns="http://www.w3.org/2000/svg" xmlns:xlink="http://www.w3.org/1999/xlink" x="0px" y="0px"
	 viewBox="0 0 42 48" style="enable-background:new 0 0 42 48;" xml:space="preserve">
<style type="text/css">
	.st0{fill:#AFE55D;}
	.st1{fill:#C3FF68;}
	.st2{fill:#444444;}
</style>
<title>administracao-do-sql-server-2017</title>
<desc>Created with Sketch.</desc>
<g>
	<polygon class="st0" points="38.5,28.9 38.5,33.6 3.5,46.3 3.2,35.2 3.2,32.2 38.5,19.4 	"/>
</g>
<g>
	<polygon class="st1" points="38.5,17.3 38,19.7 3.2,32.4 3.2,27.5 3.2,25.3 38.9,12.3 	"/>
</g>
<g transform="translate(0.5 0.5)">
	<g>
		<path class="st2" d="M39.4,11.9c0-0.2-0.1-0.3-0.2-0.5c0,0-0.1-0.1-0.1-0.1c0,0,0,0,0,0L39,11.2L25.7,0c0,0,0,0-0.1,0
			c0,0-0.1-0.1-0.1-0.1c-0.1-0.1-0.3-0.1-0.4-0.2c-0.1,0-0.2,0-0.2,0H2.8c-0.7,0-1.2,0.6-1.2,1.2v45.1c0,0.7,0.6,1.2,1.2,1.2h23.6
			c0.7,0,1.2-0.6,1.2-1.2s-0.6-1.2-1.2-1.2H4.1V2.2h19.6v10c0,0.7,0.6,1.2,1.2,1.2h12v21c0,0.7,0.6,1.2,1.2,1.2
			c0.7,0,1.2-0.6,1.2-1.2V12.2C39.4,12.1,39.4,12,39.4,11.9z M26.2,10.9V3.6l8.6,7.3H26.2z"/>
	</g>
</g>
<g>
	<g>
		<path class="st2" d="M31.6,19.9H10.4c-0.4,0-0.8,0.3-0.8,0.8v18.9c0,0.4,0.3,0.8,0.8,0.8h21.2c0.4,0,0.8-0.3,0.8-0.8V20.7
			C32.4,20.2,32,19.9,31.6,19.9z M11.1,21.4h9.1v4.8h-9.1c0,0,0,0,0,0V21.4z M11.1,27.7C11.1,27.7,11.2,27.7,11.1,27.7l9.1,0v4.8
			h-9.1V27.7z M11.1,38.8V34c0,0,0,0,0,0h9.1v4.7c0,0,0,0.1,0,0.1H11.1z M30.9,38.8h-9.1c0,0,0-0.1,0-0.1V34h9.1V38.8z M30.9,32.5
			h-9.1v-4.8h9.1V32.5z M30.9,26.2h-9.1v-4.8h9.1V26.2z"/>
	</g>
</g>
</svg>
